icons/fullscreen.svg

<svg width="27" height="27" viewBox="0 0 27 27" fill="none" xmlns="http://www.w3.org/2000/svg">
<path fill-rule="evenodd" clip-rule="evenodd" d="M0.375 9.125V3.29167C0.375 1.6875 1.6875 0.375 3.29167 0.375H9.125V3.29167H3.29167V9.125H0.375ZM0.375 17.875H3.29167V23.7083H9.125V26.625H3.29167C1.6875 26.625 0.375 25.3125 0.375 23.7083V17.875ZM23.7083 23.7083H17.875V26.625H23.7083C25.3125 26.625 26.625 25.3125 26.625 23.7083V17.875H23.7083V23.7083ZM17.875 0.375H23.7083C25.3125 0.375 26.625 1.6875 26.625 3.29167V9.125H23.7083V3.29167H17.875V0.375Z" fill="black" fill-opacity="0.2"/>
</svg>

<svg width="27" height="27" fill="none" xmlns="http://www.w3.org/2000/svg"><path fill-rule="evenodd" clip-rule="evenodd" d="M.375 9.125V3.292A2.925 2.925 0 0 1 3.292.375h5.833v2.917H3.292v5.833H.375zm0 8.75h2.917v5.833h5.833v2.917H3.292a2.925 2.925 0 0 1-2.917-2.917v-5.833zm23.333 5.833h-5.833v2.917h5.833a2.925 2.925 0 0 0 2.917-2.917v-5.833h-2.917v5.833zM17.875.375h5.833a2.925 2.925 0 0 1 2.917 2.917v5.833h-2.917V3.292h-5.833V.375z" fill="#000" fill-opacity=".2"/></svg>
